X:60
T:Lady Bell Catherine
T:Dance
S:John Moore's Book 2
Z:Transcribed by Edmund Spriggs 04/2021
%%VWML: Moore1-4494-p45-0
F:http://www.vwml.org/record/Moore2/4494/p45
M:2/4
L:1/8
K:D
d2ed/e/|fddc|Beed|cAA2|
d2ed/e/|faaf|gedc|d2z2:|
|:A2|FAAG|EAAG|FAdf|e/d/c/B/ AA/G/|
FAAG|FAAf|gfed|a2 a/g/"D.C."f/e/:|

